; G-Code generated by Simplify3D(R) Version 4.0.0
; Nov 16, 2018 at 2:54:36 PM
; Settings Summary
;   processName,Process1
;   applyToModels,4ButtonLinear
;   profileName,Creality CR-10 (modified)
;   profileVersion,2017-11-14 21:10:28
;   baseProfile,
;   printMaterial,PETG
;   printQuality,Medium
;   printExtruders,
;   extruderName,Primary Extruder
;   extruderToolheadNumber,0
;   extruderDiameter,0.4
;   extruderAutoWidth,1
;   extruderWidth,0.48
;   extrusionMultiplier,0.9
;   extruderUseRetract,1
;   extruderRetractionDistance,6
;   extruderExtraRestartDistance,0
;   extruderRetractionZLift,0.2
;   extruderRetractionSpeed,2400
;   extruderUseCoasting,1
;   extruderCoastingDistance,0.2
;   extruderUseWipe,0
;   extruderWipeDistance,5
;   primaryExtruder,0
;   layerHeight,0.2
;   topSolidLayers,2
;   bottomSolidLayers,2
;   perimeterOutlines,2
;   printPerimetersInsideOut,1
;   startPointOption,2
;   startPointOriginX,0
;   startPointOriginY,0
;   sequentialIslands,0
;   spiralVaseMode,0
;   firstLayerHeightPercentage,90
;   firstLayerWidthPercentage,125
;   firstLayerUnderspeed,0.5
;   useRaft,0
;   raftExtruder,0
;   raftTopLayers,2
;   raftBaseLayers,2
;   raftOffset,3
;   raftSeparationDistance,0.2
;   raftTopInfill,20
;   aboveRaftSpeedMultiplier,0.4
;   useSkirt,1
;   skirtExtruder,0
;   skirtLayers,1
;   skirtOutlines,2
;   skirtOffset,5
;   usePrimePillar,0
;   primePillarExtruder,999
;   primePillarWidth,12
;   primePillarLocation,7
;   primePillarSpeedMultiplier,1
;   useOozeShield,0
;   oozeShieldExtruder,999
;   oozeShieldOffset,2
;   oozeShieldOutlines,1
;   oozeShieldSidewallShape,1
;   oozeShieldSidewallAngle,30
;   oozeShieldSpeedMultiplier,1
;   infillExtruder,0
;   internalInfillPattern,Rectilinear
;   externalInfillPattern,Rectilinear
;   infillPercentage,30
;   outlineOverlapPercentage,15
;   infillExtrusionWidthPercentage,100
;   minInfillLength,5
;   infillLayerInterval,1
;   internalInfillAngles,45,-45
;   overlapInternalInfillAngles,0
;   externalInfillAngles,45,-45
;   generateSupport,0
;   supportExtruder,0
;   supportInfillPercentage,20
;   supportExtraInflation,2
;   supportBaseLayers,0
;   denseSupportExtruder,0
;   denseSupportLayers,0
;   denseSupportInfillPercentage,60
;   supportLayerInterval,2
;   supportHorizontalPartOffset,1
;   supportUpperSeparationLayers,1
;   supportLowerSeparationLayers,1
;   supportType,0
;   supportGridSpacing,2
;   maxOverhangAngle,45
;   supportAngles,0
;   temperatureName,Primary Extruder,Heated Bed
;   temperatureNumber,0,0
;   temperatureSetpointCount,1,1
;   temperatureSetpointLayers,1,1
;   temperatureSetpointTemperatures,245,50
;   temperatureStabilizeAtStartup,1,1
;   temperatureHeatedBed,0,1
;   temperatureRelayBetweenLayers,0,0
;   temperatureRelayBetweenLoops,0,0
;   fanLayers,1
;   fanSpeeds,0
;   blipFanToFullPower,0
;   adjustSpeedForCooling,1
;   minSpeedLayerTime,15
;   minCoolingSpeedSlowdown,40
;   increaseFanForCooling,0
;   minFanLayerTime,45
;   maxCoolingFanSpeed,100
;   increaseFanForBridging,0
;   bridgingFanSpeed,100
;   use5D,1
;   relativeEdistances,0
;   allowEaxisZeroing,1
;   independentExtruderAxes,0
;   includeM10123,0
;   stickySupport,1
;   applyToolheadOffsets,0
;   gcodeXoffset,0
;   gcodeYoffset,0
;   gcodeZoffset,0
;   overrideMachineDefinition,1
;   machineTypeOverride,0
;   strokeXoverride,300
;   strokeYoverride,300
;   strokeZoverride,400
;   originOffsetXoverride,0
;   originOffsetYoverride,0
;   originOffsetZoverride,0
;   homeXdirOverride,-1
;   homeYdirOverride,-1
;   homeZdirOverride,-1
;   flipXoverride,1
;   flipYoverride,-1
;   flipZoverride,1
;   toolheadOffsets,0,0|0,0|0,0|0,0|0,0|0,0
;   overrideFirmwareConfiguration,1
;   firmwareTypeOverride,RepRap (Marlin/Repetier/Sprinter)
;   GPXconfigOverride,r2
;   baudRateOverride,115200
;   overridePrinterModels,1
;   printerModelsOverride
;   startingGcode,M92 E108; Extruder Steps,M92 Z401; Z step adjustment ,G28 ; home all axes,G1 Z5 F3000 ; lift,G1 X20 Y2 F1500 ; avoid binder clips,G1 Z0.2 F3000 ; get ready to prime,G92 E0 ; reset extrusion distance,G1 X120 E10 F600 ; prime nozzle,G1 X150 F5000 ; quick wipe
;   layerChangeGcode,
;   retractionGcode,
;   toolChangeGcode,
;   endingGcode,G28 X0 ; home x axis,M106 S0 ; turn off cooling fan,M104 S0 ; turn off extruder,M140 S0 ; turn off bed,M84 ; disable motors
;   exportFileFormat,gcode
;   celebration,0
;   celebrationSong,Random Song
;   postProcessing,
;   defaultSpeed,3600
;   outlineUnderspeed,0.5
;   solidInfillUnderspeed,0.7
;   supportUnderspeed,0.8
;   rapidXYspeed,3600
;   rapidZspeed,1002
;   minBridgingArea,50
;   bridgingExtraInflation,0
;   bridgingExtrusionMultiplier,1
;   bridgingSpeedMultiplier,1
;   useFixedBridgingAngle,0
;   fixedBridgingAngle,0
;   applyBridgingToPerimeters,0
;   filamentDiameters,1.67|1.75|1.75|1.75|1.75|1.75
;   filamentPricesPerKg,25|46|46|46|46|46
;   filamentDensities,1.25|1.25|1.25|1.25|1.25|1.25
;   useMinPrintHeight,0
;   minPrintHeight,0
;   useMaxPrintHeight,0
;   maxPrintHeight,8.36
;   useDiaphragm,0
;   diaphragmLayerInterval,20
;   robustSlicing,1
;   mergeAllIntoSolid,0
;   onlyRetractWhenCrossingOutline,1
;   retractBetweenLayers,1
;   useRetractionMinTravel,0
;   retractionMinTravel,3
;   retractWhileWiping,0
;   onlyWipeOutlines,1
;   avoidCrossingOutline,0
;   maxMovementDetourFactor,3
;   toolChangeRetractionDistance,12
;   toolChangeExtraRestartDistance,-0.5
;   toolChangeRetractionSpeed,600
;   externalThinWallType,1
;   internalThinWallType,1
;   thinWallAllowedOverlapPercentage,10
;   singleExtrusionMinLength,1
;   singleExtrusionMinPrintingWidthPercentage,50
;   singleExtrusionMaxPrintingWidthPercentage,200
;   singleExtrusionEndpointExtension,0.2
;   horizontalSizeCompensation,0
G90
M82
M106 S0
M140 S50
M190 S50
M104 S245 T0
M109 S245 T0
M92 E108; Extruder Steps
M92 Z401; Z step adjustment 
G28 ; home all axes
G1 Z5 F3000 ; lift
G1 X20 Y2 F1500 ; avoid binder clips
G1 Z0.2 F3000 ; get ready to prime
G92 E0 ; reset extrusion distance
G1 X120 E10 F600 ; prime nozzle
G1 X150 F5000 ; quick wipe
G92 E0
G1 E-6.0000 F2400
G1 Z0.380 F1002
; process Process1
; layer 1, Z = 0.180
T0
; tool H0.200 W0.600
; skirt
G1 X62.020 Y52.424 F3600
G1 Z0.180 F1002
G1 E0.0000 F720
G92 E0
G1 X62.868 Y51.577 E0.0591 F1800
G1 X62.930 Y51.527 E0.0631
G1 X64.033 Y50.831 E0.1273
G1 X64.079 Y50.807 E0.1299
G1 X64.784 Y50.493 E0.1680
G1 X64.833 Y50.475 E0.1705
G1 X65.654 Y50.243 E0.2126
G1 X65.702 Y50.233 E0.2150
G1 X66.434 Y50.132 E0.2514
G1 X66.483 Y50.129 E0.2539
G1 X222.396 Y50.129 E7.9413
G1 X222.446 Y50.132 E7.9438
G1 X223.177 Y50.233 E7.9802
G1 X223.225 Y50.243 E7.9826
G1 X224.046 Y50.475 E8.0247
G1 X224.095 Y50.493 E8.0272
G1 X224.800 Y50.807 E8.0653
G1 X224.846 Y50.831 E8.0679
G1 X225.949 Y51.527 E8.1321
G1 X226.012 Y51.577 E8.1361
G1 X226.859 Y52.424 E8.1952
G1 X226.909 Y52.487 E8.1992
G1 X227.605 Y53.590 E8.2634
G1 X227.629 Y53.635 E8.2660
G1 X227.943 Y54.341 E8.3041
G1 X227.961 Y54.389 E8.3066
G1 X228.192 Y55.210 E8.3487
G1 X228.203 Y55.259 E8.3511
G1 X228.304 Y55.990 E8.3875
G1 X228.307 Y56.039 E8.3900
G1 X228.307 Y91.953 E10.1607
G1 X228.304 Y92.002 E10.1632
G1 X228.203 Y92.734 E10.1996
G1 X228.192 Y92.782 E10.2020
G1 X227.961 Y93.603 E10.2441
G1 X227.943 Y93.652 E10.2466
G1 X227.629 Y94.357 E10.2847
G1 X227.605 Y94.403 E10.2872
G1 X226.909 Y95.506 E10.3515
G1 X226.859 Y95.568 E10.3555
G1 X226.012 Y96.416 E10.4146
G1 X225.949 Y96.466 E10.4185
G1 X224.846 Y97.161 E10.4828
G1 X224.801 Y97.186 E10.4854
G1 X224.095 Y97.500 E10.5234
G1 X224.047 Y97.517 E10.5260
G1 X223.226 Y97.749 E10.5680
G1 X223.177 Y97.759 E10.5705
G1 X222.446 Y97.860 E10.6069
G1 X222.397 Y97.864 E10.6093
G1 X66.483 Y97.864 E18.2968
G1 X66.433 Y97.860 E18.2993
G1 X65.702 Y97.759 E18.3357
G1 X65.654 Y97.749 E18.3381
G1 X64.833 Y97.517 E18.3802
G1 X64.784 Y97.500 E18.3827
G1 X64.079 Y97.186 E18.4208
G1 X64.033 Y97.161 E18.4233
G1 X62.930 Y96.466 E18.4876
G1 X62.868 Y96.416 E18.4916
G1 X62.020 Y95.568 E18.5507
G1 X61.970 Y95.505 E18.5546
G1 X61.275 Y94.403 E18.6189
G1 X61.250 Y94.357 E18.6215
G1 X60.936 Y93.652 E18.6595
G1 X60.919 Y93.603 E18.6621
G1 X60.687 Y92.782 E18.7041
G1 X60.677 Y92.734 E18.7066
G1 X60.576 Y92.002 E18.7430
G1 X60.572 Y91.953 E18.7454
G1 X60.572 Y56.039 E20.5162
G1 X60.576 Y55.990 E20.5186
G1 X60.677 Y55.259 E20.5550
G1 X60.687 Y55.210 E20.5575
G1 X60.919 Y54.389 E20.5995
G1 X60.936 Y54.341 E20.6021
G1 X61.250 Y53.635 E20.6401
G1 X61.275 Y53.590 E20.6427
G1 X61.906 Y52.588 E20.7011
G1 X61.970 Y52.487 F1800
G1 X62.020 Y52.424 F1800
G1 X62.378 Y52.745 F3600
G92 E0
G1 X63.188 Y51.935 E0.0565 F1800
G1 X63.209 Y51.918 E0.0578
G1 X64.275 Y51.246 E0.1199
G1 X64.290 Y51.238 E0.1208
G1 X64.964 Y50.938 E0.1571
G1 X64.980 Y50.932 E0.1580
G1 X65.768 Y50.710 E0.1984
G1 X65.785 Y50.707 E0.1992
G1 X66.483 Y50.610 E0.2339
G1 X66.500 Y50.609 E0.2348
G1 X222.380 Y50.609 E7.9206
G1 X222.396 Y50.610 E7.9214
G1 X223.095 Y50.707 E7.9562
G1 X223.111 Y50.710 E7.9570
G1 X223.899 Y50.932 E7.9974
G1 X223.916 Y50.938 E7.9983
G1 X224.589 Y51.238 E8.0346
G1 X224.605 Y51.246 E8.0355
G1 X225.670 Y51.918 E8.0976
G1 X225.691 Y51.935 E8.0989
G1 X226.501 Y52.745 E8.1554
G1 X226.518 Y52.766 E8.1567
G1 X227.190 Y53.831 E8.2188
G1 X227.198 Y53.846 E8.2196
G1 X227.498 Y54.520 E8.2560
G1 X227.503 Y54.536 E8.2569
G1 X227.726 Y55.325 E8.2972
G1 X227.729 Y55.341 E8.2981
G1 X227.826 Y56.039 E8.3328
G1 X227.827 Y56.056 E8.3337
G1 X227.827 Y91.937 E10.1028
G1 X227.826 Y91.953 E10.1036
G1 X227.729 Y92.652 E10.1384
G1 X227.726 Y92.668 E10.1392
G1 X227.503 Y93.456 E10.1796
G1 X227.498 Y93.473 E10.1804
G1 X227.198 Y94.146 E10.2168
G1 X227.190 Y94.161 E10.2176
G1 X226.518 Y95.227 E10.2798
G1 X226.501 Y95.248 E10.2811
G1 X225.691 Y96.057 E10.3375
G1 X225.670 Y96.074 E10.3389
G1 X224.605 Y96.746 E10.4010
G1 X224.590 Y96.754 E10.4018
G1 X223.916 Y97.054 E10.4382
G1 X223.900 Y97.060 E10.4390
G1 X223.111 Y97.283 E10.4794
G1 X223.095 Y97.286 E10.4802
G1 X222.396 Y97.383 E10.5150
G1 X222.380 Y97.384 E10.5158
G1 X66.499 Y97.384 E18.2017
G1 X66.483 Y97.383 E18.2025
G1 X65.784 Y97.286 E18.2373
G1 X65.768 Y97.283 E18.2381
G1 X64.980 Y97.060 E18.2785
G1 X64.963 Y97.054 E18.2793
G1 X64.290 Y96.754 E18.3157
G1 X64.275 Y96.746 E18.3165
G1 X63.209 Y96.074 E18.3787
G1 X63.188 Y96.057 E18.3800
G1 X62.378 Y95.248 E18.4364
G1 X62.362 Y95.227 E18.4378
G1 X61.690 Y94.161 E18.4999
G1 X61.682 Y94.146 E18.5007
G1 X61.382 Y93.472 E18.5371
G1 X61.376 Y93.456 E18.5379
G1 X61.153 Y92.668 E18.5783
G1 X61.150 Y92.652 E18.5791
G1 X61.053 Y91.953 E18.6139
G1 X61.052 Y91.937 E18.6147
G1 X61.052 Y56.056 E20.3839
G1 X61.053 Y56.039 E20.3847
G1 X61.150 Y55.341 E20.4194
G1 X61.153 Y55.325 E20.4203
G1 X61.376 Y54.536 E20.4606
G1 X61.382 Y54.520 E20.4615
G1 X61.682 Y53.846 E20.4979
G1 X61.690 Y53.831 E20.4987
G1 X62.269 Y52.912 E20.5523
G1 X62.362 Y52.766 F1800
G1 X62.378 Y52.745 F1800
G92 E0
G1 E-6.0000 F2400
G1 Z0.380 F1002
; inner perimeter
G1 X67.192 Y56.749 F3600
G1 Z0.180 F1002
G1 E0.0000 F2400
G92 E0
G1 X221.687 Y56.749 E7.6176 F1350
G1 X221.687 Y91.244 E9.3184
G1 X67.192 Y91.244 E16.9359
G1 X67.192 Y56.949 E18.6269
G1 X67.192 Y56.749 F1350
; outer perimeter
G1 X66.887 Y56.149 F3600
G92 E0
G1 X221.993 Y56.149 E7.6477 F900
G1 X222.173 Y56.263 E7.6582
G1 X222.287 Y56.443 E7.6687
G1 X222.287 Y91.549 E9.3997
G1 X222.173 Y91.730 E9.4102
G1 X221.993 Y91.844 E9.4207
G1 X66.887 Y91.844 E17.0684
G1 X66.706 Y91.730 E17.0789
G1 X66.592 Y91.549 E17.0895
G1 X66.592 Y56.443 E18.8204
G1 X66.706 Y56.263 E18.8309
G1 X66.718 Y56.255 E18.8316
G1 X66.887 Y56.149 F900
; inner perimeter
G1 X73.386 Y62.567 F3600
G92 E0
G1 X72.647 Y63.330 E0.0524 F1350
G1 X71.961 Y64.142 E0.1048
G1 X71.331 Y64.997 E0.1572
G1 X70.759 Y65.893 E0.2096
G1 X70.248 Y66.825 E0.2620
G1 X69.801 Y67.789 E0.3144
G1 X69.419 Y68.780 E0.3668
G1 X69.104 Y69.796 E0.4192
G1 X68.858 Y70.829 E0.4715
G1 X68.681 Y71.877 E0.5239
G1 X68.575 Y72.934 E0.5763
G1 X68.539 Y73.996 E0.6287
G1 X68.575 Y75.058 E0.6811
G1 X68.681 Y76.116 E0.7335
G1 X68.858 Y77.163 E0.7859
G1 X69.104 Y78.197 E0.8383
G1 X69.419 Y79.212 E0.8907
G1 X69.801 Y80.204 E0.9431
G1 X70.248 Y81.167 E0.9955
G1 X70.759 Y82.100 E1.0479
G1 X71.331 Y82.995 E1.1003
G1 X71.961 Y83.851 E1.1527
G1 X72.647 Y84.662 E1.2051
G1 X73.386 Y85.426 E1.2575
G1 X74.174 Y86.139 E1.3099
G1 X75.008 Y86.797 E1.3622
G1 X75.884 Y87.399 E1.4146
G1 X76.798 Y87.940 E1.4670
G1 X77.747 Y88.419 E1.5194
G1 X78.725 Y88.834 E1.5718
G1 X79.729 Y89.183 E1.6242
G1 X80.754 Y89.464 E1.6766
G1 X81.795 Y89.675 E1.7290
G1 X82.848 Y89.817 E1.7814
G1 X83.908 Y89.888 E1.8338
G1 X84.971 Y89.888 E1.8862
G1 X86.031 Y89.817 E1.9386
G1 X87.084 Y89.675 E1.9910
G1 X88.126 Y89.464 E2.0434
G1 X89.151 Y89.183 E2.0958
G1 X90.154 Y88.834 E2.1482
G1 X91.133 Y88.419 E2.2006
G1 X92.081 Y87.940 E2.2529
G1 X92.995 Y87.399 E2.3053
G1 X93.872 Y86.797 E2.3577
G1 X94.706 Y86.139 E2.4101
G1 X95.494 Y85.426 E2.4625
G1 X96.232 Y84.662 E2.5149
G1 X96.918 Y83.851 E2.5673
G1 X97.549 Y82.995 E2.6197
G1 X98.120 Y82.100 E2.6721
G1 X98.631 Y81.167 E2.7245
G1 X99.078 Y80.204 E2.7769
G1 X99.460 Y79.212 E2.8293
G1 X99.775 Y78.197 E2.8817
G1 X100.022 Y77.164 E2.9341
G1 X100.198 Y76.116 E2.9865
G1 X100.305 Y75.058 E3.0389
G1 X100.340 Y73.996 E3.0913
G1 X100.305 Y72.934 E3.1437
G1 X100.198 Y71.877 E3.1960
G1 X100.022 Y70.829 E3.2484
G1 X99.775 Y69.796 E3.3008
G1 X99.460 Y68.781 E3.3532
G1 X99.078 Y67.789 E3.4056
G1 X98.631 Y66.825 E3.4580
G1 X98.120 Y65.893 E3.5104
G1 X97.549 Y64.997 E3.5628
G1 X96.918 Y64.142 E3.6152
G1 X96.232 Y63.330 E3.6676
G1 X95.494 Y62.567 E3.7200
G1 X94.706 Y61.854 E3.7724
G1 X93.872 Y61.195 E3.8248
G1 X92.995 Y60.594 E3.8772
G1 X92.081 Y60.052 E3.9296
G1 X91.133 Y59.573 E3.9820
G1 X90.154 Y59.158 E4.0343
G1 X89.151 Y58.810 E4.0867
G1 X88.126 Y58.529 E4.1391
G1 X87.084 Y58.317 E4.1915
G1 X86.031 Y58.176 E4.2439
G1 X84.971 Y58.105 E4.2963
G1 X83.908 Y58.105 E4.3487
G1 X82.848 Y58.176 E4.4011
G1 X81.795 Y58.317 E4.4535
G1 X80.754 Y58.529 E4.5059
G1 X79.729 Y58.810 E4.5583
G1 X78.725 Y59.158 E4.6107
G1 X77.747 Y59.573 E4.6631
G1 X76.798 Y60.052 E4.7155
G1 X75.884 Y60.594 E4.7679
G1 X75.008 Y61.195 E4.8203
G1 X74.174 Y61.854 E4.8727
G1 X73.534 Y62.433 E4.9152
G1 X73.386 Y62.567 F1350
; outer perimeter
G1 X73.803 Y62.998 F3600
G92 E0
G1 X73.092 Y63.733 E0.0504 F900
G1 X72.432 Y64.514 E0.1008
G1 X71.826 Y65.337 E0.1513
G1 X71.275 Y66.199 E0.2017
G1 X70.784 Y67.096 E0.2521
G1 X70.354 Y68.023 E0.3025
G1 X69.986 Y68.977 E0.3529
G1 X69.683 Y69.954 E0.4033
G1 X69.446 Y70.949 E0.4537
G1 X69.276 Y71.957 E0.5042
G1 X69.174 Y72.974 E0.5546
G1 X69.140 Y73.996 E0.6050
G1 X69.174 Y75.018 E0.6554
G1 X69.276 Y76.035 E0.7058
G1 X69.446 Y77.044 E0.7562
G1 X69.683 Y78.038 E0.8067
G1 X69.986 Y79.015 E0.8571
G1 X70.354 Y79.969 E0.9075
G1 X70.784 Y80.897 E0.9579
G1 X71.275 Y81.794 E1.0083
G1 X71.826 Y82.655 E1.0587
G1 X72.432 Y83.479 E1.1092
G1 X73.092 Y84.259 E1.1596
G1 X73.803 Y84.994 E1.2100
G1 X74.561 Y85.680 E1.2604
G1 X75.364 Y86.314 E1.3108
G1 X76.207 Y86.893 E1.3612
G1 X77.087 Y87.414 E1.4117
G1 X77.999 Y87.875 E1.4621
G1 X78.941 Y88.274 E1.5125
G1 X79.907 Y88.609 E1.5629
G1 X80.893 Y88.880 E1.6133
G1 X81.895 Y89.083 E1.6637
G1 X82.908 Y89.220 E1.7141
G1 X83.928 Y89.288 E1.7646
G1 X84.951 Y89.288 E1.8150
G1 X85.971 Y89.220 E1.8654
G1 X86.985 Y89.083 E1.9158
G1 X87.987 Y88.880 E1.9662
G1 X88.973 Y88.609 E2.0166
G1 X89.939 Y88.274 E2.0671
G1 X90.880 Y87.875 E2.1175
G1 X91.793 Y87.414 E2.1679
G1 X92.672 Y86.893 E2.2183
G1 X93.515 Y86.314 E2.2687
G1 X94.318 Y85.680 E2.3191
G1 X95.076 Y84.994 E2.3696
G1 X95.787 Y84.259 E2.4200
G1 X96.447 Y83.479 E2.4704
G1 X97.054 Y82.655 E2.5208
G1 X97.604 Y81.793 E2.5712
G1 X98.095 Y80.897 E2.6216
G1 X98.526 Y79.969 E2.6720
G1 X98.893 Y79.015 E2.7225
G1 X99.196 Y78.038 E2.7729
G1 X99.433 Y77.044 E2.8233
G1 X99.603 Y76.036 E2.8737
G1 X99.706 Y75.018 E2.9241
G1 X99.740 Y73.996 E2.9745
G1 X99.706 Y72.974 E3.0250
G1 X99.603 Y71.957 E3.0754
G1 X99.433 Y70.949 E3.1258
G1 X99.196 Y69.954 E3.1762
G1 X98.893 Y68.977 E3.2266
G1 X98.526 Y68.023 E3.2770
G1 X98.095 Y67.096 E3.3275
